packages/foundations/assets/icons/functional/images/editing/pin_16.svg

<svg width="16" height="16" viewBox="0 0 16 16" fill="none" xmlns="http://www.w3.org/2000/svg">
<g clip-path="url(#clip0_2622_100)">
<path fill-rule="evenodd" clip-rule="evenodd" d="M9.59762 1.33523L14.6512 6.32723C14.8044 6.47724 14.8944 6.68013 14.9028 6.89435C14.9112 7.10856 14.8374 7.31789 14.6965 7.47946C14.5556 7.64103 14.3582 7.7426 14.1449 7.76338C13.9315 7.78416 13.7183 7.72257 13.5488 7.59123L13.1272 7.18323L11.1432 9.14803C11.3336 9.45843 11.4632 9.78803 11.5296 10.1328C11.7552 11.2928 11.288 12.4304 10.4144 13.5168C10.0843 13.9329 9.71254 14.3141 9.30482 14.6544C9.15819 14.7732 8.97585 14.8391 8.78718 14.8416C8.59851 14.844 8.41451 14.7829 8.26482 14.668L5.35602 11.7984L2.58162 14.5456C2.42976 14.6959 2.22638 14.7826 2.01284 14.7882C1.7993 14.7938 1.59165 14.7178 1.43214 14.5757C1.27263 14.4336 1.17325 14.2361 1.1542 14.0234C1.13516 13.8106 1.19788 13.5986 1.32962 13.4304L4.16162 10.616L1.34562 7.82963C1.19643 7.68196 1.10794 7.48377 1.09757 7.27411C1.08721 7.06445 1.15572 6.8585 1.28962 6.69683C1.52562 6.41123 1.92162 6.00563 2.43842 5.59843C3.53282 4.73603 4.67682 4.27603 5.83922 4.49683C6.19122 4.56403 6.52722 4.69363 6.84322 4.88563L8.82482 2.92483L8.49522 2.59843C8.34206 2.44842 8.25206 2.24553 8.24364 2.03132C8.23522 1.8171 8.30902 1.60777 8.44993 1.44621C8.59084 1.28464 8.7882 1.18306 9.00157 1.16228C9.21494 1.1415 9.42818 1.20389 9.59762 1.33523ZM10.0192 4.10643L7.50162 6.59843C7.34375 6.75289 7.13168 6.83938 6.91082 6.83938C6.68996 6.83938 6.47789 6.75289 6.32002 6.59843C6.05842 6.34003 5.80002 6.18723 5.52562 6.14723C4.85922 6.05043 4.05762 6.40883 3.12082 7.22243L8.78642 12.8296C9.60802 11.9496 9.97282 11.1576 9.88082 10.4536C9.85042 10.224 9.72642 10.0056 9.53202 9.78563C9.41042 9.68243 8.86322 9.14803 9.42802 8.48163C10.2601 7.65213 11.0951 6.82546 11.9328 6.00163L10.0192 4.10643Z" fill="#282D37"/>
</g>
<defs>
<clipPath id="clip0_2622_100">
<rect width="16" height="16" fill="white"/>
</clipPath>
</defs>
</svg>

<svg xmlns="http://www.w3.org/2000/svg" width="16" height="16" fill="none"><g clip-path="url(#a)"><path fill="#282D37" fill-rule="evenodd" d="m9.598 1.335 5.053 4.992a.84.84 0 0 1-1.102 1.264l-.422-.408-1.984 1.965q.286.466.387.985c.225 1.16-.242 2.297-1.116 3.384a7.8 7.8 0 0 1-1.11 1.137.84.84 0 0 1-1.04.014l-2.908-2.87-2.774 2.748A.84.84 0 0 1 1.33 13.43l2.832-2.814L1.346 7.83a.84.84 0 0 1-.056-1.133 8 8 0 0 1 1.148-1.099c1.095-.862 2.239-1.322 3.401-1.101a3 3 0 0 1 1.004.389l1.982-1.961-.33-.327a.84.84 0 0 1 1.103-1.263m.421 2.771L7.502 6.598a.845.845 0 0 1-1.182 0c-.262-.258-.52-.41-.794-.45Q4.526 6 3.12 7.221l5.665 5.608q1.233-1.32 1.095-2.376c-.03-.23-.155-.448-.349-.668-.122-.104-.669-.638-.104-1.304q1.248-1.245 2.505-2.48z" clip-rule="evenodd"/></g><defs><clipPath id="a"><path fill="#fff" d="M0 0h16v16H0z"/></clipPath></defs></svg>
